icons/linear-ele-food-tableware.svg

<svg xmlns="http://www.w3.org/2000/svg" width="32px" height="32px" viewBox="0 0 32 32" version="1.1">
    <title>linear-ele-food-tableware</title>
    <g id="linear-ele-food-tableware" stroke-width="1" fill-rule="evenodd">
        <path d="M28,13 C28.5522847,13 29,13.4477153 29,14 C29,18.4947143 26.6990008,22.5896101 23.0014029,24.955446 L23,27 C23,28.1045695 22.1045695,29 21,29 L11,29 C9.8954305,29 9,28.1045695 9,27 L9.000095,24.9564055 C5.30167371,22.5907588 3,18.4953684 3,14 C3,13.4477153 3.44771525,13 4,13 L28,13 Z M21,25 L11,25 L11,27 L21,27 L21,25 Z M26.954,15 L5.045,15 L5.07739008,15.3083972 C5.44828846,18.426398 7.13144686,21.2123532 9.67413075,23.0007814 L22.3258023,23.0007814 C24.8686381,21.2123162 26.5518215,18.4262175 26.9226461,15.3080951 L26.954,15 Z M21.7071068,3.29289322 C22.0976311,3.68341751 22.0976311,4.31658249 21.7071068,4.70710678 L15.4140001,11 L12.5850001,11 L20.2928932,3.29289322 C20.6834175,2.90236893 21.3165825,2.90236893 21.7071068,3.29289322 Z M26.8574929,6.48550424 C27.1416411,6.95908451 26.988076,7.57334477 26.5144958,7.85749293 L21.2760001,11 L17.3880001,11 L25.4855042,6.14250707 C25.9590845,5.85835891 26.5733448,6.01192398 26.8574929,6.48550424 Z" id="&#24418;&#29366;" fill-rule="nonzero" />
    </g>
</svg>

<svg xmlns="http://www.w3.org/2000/svg" viewBox="0 0 32 32"><path fill="currentColor" d="M28 13a1 1 0 0 1 1 1 12.99 12.99 0 0 1-5.999 10.955L23 27a2 2 0 0 1-2 2H11a2 2 0 0 1-2-2v-2.044A12.99 12.99 0 0 1 3 14a1 1 0 0 1 1-1zm-7 12H11v2h10zm5.954-10H5.045l.032.308a10.99 10.99 0 0 0 4.597 7.693h12.652a10.99 10.99 0 0 0 4.597-7.693zM21.707 3.293a1 1 0 0 1 0 1.414L15.414 11h-2.829l7.708-7.707a1 1 0 0 1 1.414 0m5.15 3.193a1 1 0 0 1-.343 1.371L21.276 11h-3.888l8.098-4.857a1 1 0 0 1 1.371.343"/></svg>
